src/assets/filled/Nebulas.svg

<?xml version="1.0" encoding="UTF-8"?>
<svg width="24" height="24" viewBox="0 0 24 24" xmlns="http://www.w3.org/2000/svg">
 <path d="m12 2c-5.52 0-10 4.48-10 10s4.48 10 10 10 10-4.48 10-10-4.48-10-10-10zm1.5 12.75-0.31-0.1-0.19 0.6-1 3-2.5-4.68-0.10001-0.19-3.4-1.13 2.18-1.09 1.82-0.91 0.47-0.21 1.53-4.79 1.55 3.4 0.95 2.1-0.41 0.21 3.91 1.29-4.5 2.5z"/>
</svg>

<svg width="24" height="24" viewBox="0 0 24 24"  xmlns="http://www.w3.org/2000/svg">
<path d="M12 2C6.48 2 2 6.48 2 12C2 17.52 6.48 22 12 22C17.52 22 22 17.52 22 12C22 6.48 17.52 2 12 2ZM13.5 14.75L13.19 14.65L13 15.25L12 18.25L9.5 13.57L9.39999 13.38L6 12.25L8.17999 11.16L10 10.25L10.47 10.04L12 5.25L13.55 8.64999L14.5 10.75L14.09 10.96L18 12.25L13.5 14.75Z" />
</svg>
